assets/T-shirt/Flat/t-shirt_flat.svg

<svg width="32" height="32" viewBox="0 0 32 32" fill="none" xmlns="http://www.w3.org/2000/svg">
<path d="M29.6964 12.33L24.7064 9.45C24.2064 9.16 23.6364 9.01001 23.0564 9.01001H8.93638C8.61871 9.01001 8.30405 9.055 8.00224 9.14335C6.00047 9.72931 4.08958 11.295 2.29636 12.33C2.01636 12.49 1.91636 12.86 2.07636 13.14L4.86637 17.97C5.02637 18.25 5.39637 18.35 5.67637 18.19L8 16.8477V29.2461C8 29.6661 8.34 29.9961 8.75 29.9961H23.2461C23.6661 29.9961 23.9961 29.6561 23.9961 29.2461V16.8555L26.2964 18.19C26.5864 18.35 26.9464 18.26 27.1064 17.97L29.8964 13.14C30.0864 12.86 29.9864 12.5 29.6964 12.33Z" fill="#86D72F"/>
<path d="M11.4836 9.01001C11.4836 9.0523 11.4836 9.08402 11.4836 9.12631C11.4836 11.5581 13.5119 13.5352 16.0065 13.5352C18.5011 13.5352 20.5293 11.5581 20.5293 9.12631C20.5293 9.08402 20.5293 9.0523 20.5293 9.01001H11.4836Z" fill="#44911B"/>
<path d="M23.9999 16H8V19H23.9999V16Z" fill="#C3EF3C"/>
<path d="M12.0078 9.01001C12.0078 11.2081 13.802 12.9899 16.0001 12.9899C18.1981 12.9899 20 11.2081 20 9.01001H21.0078C21.0078 11.7603 18.7504 13.9899 16.0001 13.9899C13.2497 13.9899 10.9922 11.7603 10.9922 9.01001H12.0078Z" fill="#00D26A"/>
</svg>

<svg xmlns="http://www.w3.org/2000/svg" width="32" height="32" fill="none"><path fill="#86D72F" d="m29.696 12.33-4.99-2.88c-.5-.29-1.07-.44-1.65-.44H8.936c-.317 0-.632.045-.934.133C6 9.73 4.09 11.295 2.296 12.33a.6.6 0 0 0-.22.81l2.79 4.83a.6.6 0 0 0 .81.22L8 16.848v12.398c0 .42.34.75.75.75h14.496c.42 0 .75-.34.75-.75v-12.39l2.3 1.334c.29.16.65.07.81-.22l2.79-4.83c.19-.28.09-.64-.2-.81Z"/><path fill="#44911B" d="M11.484 9.01v.116c0 2.432 2.028 4.41 4.522 4.41 2.495 0 4.523-1.978 4.523-4.41V9.01h-9.045Z"/><path fill="#C3EF3C" d="M24 16H8v3h16v-3Z"/><path fill="#00D26A" d="M12.008 9.01c0 2.198 1.794 3.98 3.992 3.98s4-1.782 4-3.98h1.008c0 2.75-2.258 4.98-5.008 4.98s-5.008-2.23-5.008-4.98h1.016Z"/></svg>
